Catalina-light/actions/16/flag-blue.svg

<svg width="16" height="16" viewBox="0 0 16 16" xmlns="http://www.w3.org/2000/svg">
<defs>
<style id="current-color-scheme" type="text/css">.ColorScheme-Text { color:#5c616c; } .ColorScheme-Highlight { color:#5294e2; }</style>
</defs>
<path class="ColorScheme-Text" d="m2 0v16h2v-9h3l1 2h6v-7h-4l-1-2h-7z" fill="currentColor"/>
<path class="ColorScheme-Highlight" d="m4 0v7h3l1 2h6v-7h-4l-1-2h-5z" fill="currentColor"/>
</svg>

<svg xmlns="http://www.w3.org/2000/svg" width="16" height="16" viewBox="0 0 16 16">
 <defs>
  <style id="current-color-scheme" type="text/css">
   .ColorScheme-Text { color:#5c616c; } .ColorScheme-Highlight { color:#5294e2; }
  </style>
 </defs>
 <path style="fill:currentColor" class="ColorScheme-Text" d="M 2,0 2,16 4,16 4,7 7,7 8,9 14,9 14,2 10,2 9,0 4,0 2,0 Z"/>
 <path style="fill:currentColor" class="ColorScheme-Highlight" d="M 4,0 4,7 7,7 8,9 14,9 14,2 10,2 9,0 4,0 Z"/>
</svg>
